X:1
T:Title
%%score { ( 1 3 ) | 2 }
L:1/8
M:3/4
K:Ab
V:1 treble nm="Grand Piano"
V:3 treble 
V:2 bass 
V:1
 z2 z2[Q:1/4=94] [CE]2 | [Ec][=D_c] [E=c]2 [EA]2 | [FA][DF] [FA]2 [DF]2 | [CE]c B2 A2 |[M:2/4] B4 | %5
[M:1/4] E2 |[M:3/4] [Ec][=D_c] [E=c]2 [EA]2 | [FA][DF] [FA]2 F2 | EA A2 G2 |[M:2/4] [CA]4 | %10
[M:1/4] [EA]2 |[M:3/4] z2 z2 [=Ec]2 | AG A2 c2 | [Ge][GB] [Ac]2 [Bd]2 |[M:2/4] c4 |[M:1/4] c2 | %16
[M:3/4] dc B2 [EA]2 | [FA][EG] F2 E2 | A[Fd] [Ec]2 [DB]2 |[M:2/4] [CA]4 |] %20
V:2
 z2 z2 [A,,A,]2 | [A,,A,][A,,A,] [A,,A,]2 [C,A,]2 | [D,A,][D,A,] [D,A,]2 [D,A,]2 | %3
 [A,,A,][A,E] [G,B,E]2 [F,B,=D]2 |[M:2/4] [E,G,E]4 |[M:1/4] [E,G,]2 | %6
[M:3/4] [A,,A,][A,,A,] [A,,A,]2 [C,A,]2 | [D,A,][D,A,] [D,A,]2 [D,A,D]2 | %8
 [E,A,C][E,CE] [E,B,D]2 [E,B,D]2 |[M:2/4] [A,,A,]4 |[M:1/4] [C,A,]2 | %11
[M:3/4] [E,G,E][E,_G,E] [E,=G,E]2 .[C,G,]2 | [F,CF][=E,C] [F,CF]2 [F,A,F]2 | %13
 [E,B,][E,E] [E,E]2 [E,E]2 |[M:2/4][K:treble] [A,EA]4 |[M:1/4] [A,E]2 | %16
[M:3/4] [A,F][K:bass][A,E] [E,G,E]2 [C,A,]2 | [D,A,][D,A,] [D,A,D]2 [E,G,D]2 | %18
 [F,A,C][D,A,] [E,A,]2 [E,G,]2 |[M:2/4] [A,,A,]4 |] %20
V:3
 x6 | x6 | x6 | x6 |[M:2/4] x4 |[M:1/4] x2 |[M:3/4] x6 | x6 | x6 |[M:2/4] x4 |[M:1/4] x2 | %11
[M:3/4] B=A B2 z C | x6 | x6 |[M:2/4] x4 |[M:1/4] x2 |[M:3/4] x6 | x6 | x6 |[M:2/4] x4 |] %20

